assets/icons/24px/outline/folder-tick-24px.svg

<svg width="24" height="24" viewBox="0 0 24 24" fill="none" xmlns="http://www.w3.org/2000/svg">
<path d="M15 7L13.2 4.6C12.6111 3.81486 12.3167 3.42229 11.8944 3.21115C11.4721 3 10.9814 3 10 3H7C5.11438 3 4.17157 3 3.58579 3.58579C3 4.17157 3 5.11438 3 7L3 17C3 18.8856 3 19.8284 3.58579 20.4142C4.17157 21 5.11438 21 7 21H11M15 7H17C18.8856 7 19.8284 7 20.4142 7.58579C21 8.17157 21 9.11438 21 11V11.5M15 7H3" stroke="white" stroke-width="2" stroke-linecap="round"/>
<path d="M21 16L17 20.5L15 19" stroke="white" stroke-width="2" stroke-linecap="round" stroke-linejoin="round"/>
</svg>

<svg width="24" height="24" fill="none" xmlns="http://www.w3.org/2000/svg"><path d="M15 7l-1.8-2.4c-.589-.785-.883-1.178-1.306-1.389C11.472 3 10.981 3 10 3H7c-1.886 0-2.828 0-3.414.586C3 4.172 3 5.114 3 7v10c0 1.886 0 2.828.586 3.414C4.172 21 5.114 21 7 21h4m4-14h2c1.886 0 2.828 0 3.414.586C21 8.172 21 9.114 21 11v.5M15 7H3" stroke="#fff" stroke-width="2" stroke-linecap="round"/><path d="M21 16l-4 4.5-2-1.5" stroke="#fff" stroke-width="2" stroke-linecap="round" stroke-linejoin="round"/></svg>
